!!!OTL: Die Schlangenkoechin A ked' ty nam umres,
!!!ARE: Europa, Osteuropa, Tschechoslowakei, Maehren, Sued - Walachei, Tichov
!!!ARD: Europa%Osteuropa%Ceska Republika@Maehren#Sued-Walachei#Tichov:
!!!ARL: 49.18/17.98:
!!!YOR: 4, S. 206
!!    1949 aufgezeichnet
!!!SCT: Q2079G
!!!YEM: Copyright 1995, estate of Helmut Schaffrath.
**kern
*ICvox
*Ivox
*M2/4
*k[f#c#]
*D:
=1
{8d
8e
8f#
8g
=2
4a
4g}
=3
{8a
8b
8ccn
8b
=4
4a
4r}
=5
{4dd
4ccn
=6
8b
8a
8g
8f#
=7
8g
8g
4d}
=8
{8g
8b
8a
8g
=9
12f#
12g
12f#
4e
=10
4d
4r}
==
!!!AGN: Ballade, Mord; Reigen - Tanz, antiphonal
!! Maehrische Fassung der Ballade. Verzierungen (Nachschlaege) und
!!    Quintole. Quintole in Triole plus Viertelnote geaendert.
!!    Zweite und vierte Zeile = Refrain.
!!!ONB: ESAC (Essen Associative Code) Database: BALLADE
!!!AMT: simple duple
!!!AIN: vox
!!!EED: Helmut Schaffrath
!!!EEV: 1.0
*-
!!!title: @{OTL} [@{SCT}]
